dist/svg/face-happy-o.svg

<!-- Generated by Trend Micro Style Portal -->
<svg version="1.1" xmlns="http://www.w3.org/2000/svg" width="16" height="16" viewBox="0 0 16 16">
  <title>face-happy-o</title>
  <path fill="rgb(34,34,34)" d="M8 1.5c3.59 0 6.5 2.91 6.5 6.5s-2.91 6.5-6.5 6.5c-3.59 0-6.5-2.91-6.5-6.5v0c0.004-3.588 2.912-6.496 6.5-6.5h0zM8 0c-4.418 0-8 3.582-8 8s3.582 8 8 8c4.418 0 8-3.582 8-8v0c0-4.418-3.582-8-8-8v0zM5 4c-0.552 0-1 0.672-1 1.5s0.448 1.5 1 1.5 1-0.672 1-1.5-0.448-1.5-1-1.5zM11 4c-0.552 0-1 0.672-1 1.5s0.448 1.5 1 1.5 1-0.672 1-1.5-0.448-1.5-1-1.5zM8 9.5c-0.004 0-0.008 0-0.012 0-1.859 0-3.587-0.567-5.018-1.537l0.031 0.020-0.002 0.017c0 2.761 2.239 5 5 5s5-2.239 5-5v0l-0.002-0.017c-1.4 0.95-3.127 1.517-4.987 1.517-0.004 0-0.008 0-0.012-0h0.001z"></path>
</svg>

<svg width="16" height="16" viewBox="0 0 16 16" fill="rgb(34, 34, 34)" xmlns="http://www.w3.org/2000/svg"><title>face-happy-o</title><path d="M8 1.5C11.59 1.5 14.5 4.41 14.5 8C14.5 11.59 11.59 14.5 8 14.5C4.41 14.5 1.5 11.59 1.5 8C1.504 4.412 4.412 1.504 8 1.5ZM8 0C3.582 0 0 3.582 0 8C0 12.418 3.582 16 8 16C12.418 16 16 12.418 16 8C16 3.582 12.418 0 8 0ZM5 4C4.448 4 4 4.672 4 5.5C4 6.328 4.448 7 5 7C5.552 7 6 6.328 6 5.5C6 4.672 5.552 4 5 4ZM11 4C10.448 4 10 4.672 10 5.5C10 6.328 10.448 7 11 7C11.552 7 12 6.328 12 5.5C12 4.672 11.552 4 11 4ZM8 9.5C7.996 9.5 7.992 9.5 7.988 9.5C6.129 9.5 4.401 8.933 2.97 7.963L3.001 7.983L2.999 8C2.999 10.761 5.238 13 7.999 13C10.76 13 12.999 10.761 12.999 8L12.997 7.983C11.597 8.933 9.87 9.5 8.01 9.5C8.006 9.5 8.002 9.5 7.998 9.5H8Z" fill="rgb(34, 34, 34)" fill-opacity="1.00"/></svg>
